src/dsmComponents/Icons/warning-1-16px.svg

<?xml version="1.0" encoding="UTF-8"?>
<svg width="16px" height="15px" viewBox="0 0 16 15" version="1.1" xmlns="http://www.w3.org/2000/svg" xmlns:xlink="http://www.w3.org/1999/xlink">
    <!-- Generator: Sketch 59.1 (86144) - https://sketch.com -->
    <title>warning-1-16px</title>
    <desc>Created with Sketch.</desc>
    <defs>
        <path d="M0.0845174057,13.9523684 C-0.169886285,14.4284211 0.180518798,15 0.728526748,15 L15.2719377,15 C15.8191457,15 16.1703508,14.4284211 15.9151471,13.9523684 L8.64384157,0.380526316 C8.50623958,0.126315789 8.25343591,0 8.00063224,0 C7.74622855,0 7.49262487,0.126315789 7.35742291,0.380526316 L0.0845174057,13.9523684 Z M8.00063224,2.40394737 L13.8999178,13.4131579 L2.10134666,13.4131579 L8.00063224,2.40394737 Z M7.27262168,9.28578947 C7.27262168,9.67973684 7.59982643,9.99868421 8.00063224,9.99868421 C8.40143806,9.99868421 8.72784279,9.67973684 8.72784279,9.28578947 L8.72784279,6.42789474 C8.72784279,6.03236842 8.40143806,5.71342105 8.00063224,5.71342105 C7.59982643,5.71342105 7.27262168,6.03236842 7.27262168,6.42789474 L7.27262168,9.28578947 Z M8.00063224,12.1428947 C8.40143806,12.1428947 8.72784279,11.8231579 8.72784279,11.4276316 C8.72784279,11.0336842 8.40143806,10.7139474 8.00063224,10.7139474 C7.59982643,10.7139474 7.27262168,11.0336842 7.27262168,11.4276316 C7.27262168,11.8231579 7.59982643,12.1428947 8.00063224,12.1428947 L8.00063224,12.1428947 Z" id="path-1"></path>
    </defs>
    <g id="Final" stroke="none" stroke-width="1" fill="none" fill-rule="evenodd">
        <g id="All-Nucleo-Icons" transform="translate(-319.000000, -5662.000000)">
            <g id="Solo/Nucleo/16px/warning-1" transform="translate(315.000000, 5657.000000)">
                <g id="warning-1" transform="translate(4.000000, 5.000000)">
                    <g id="Colour/Default-Colour">
                        <mask id="mask-2" fill="white">
                            <use xlink:href="#path-1"></use>
                        </mask>
                        <use id="Mask" fill="#000000" xlink:href="#path-1"></use>
                        <g id="colour/neutral/chia" mask="url(#mask-2)" fill="#737373">
                            <g transform="translate(-24.000000, -25.000000)" id="Colour">
                                <rect x="0" y="0" width="64" height="64"></rect>
                            </g>
                        </g>
                    </g>
                </g>
            </g>
        </g>
    </g>
</svg>

<svg width="16" height="15" xmlns="http://www.w3.org/2000/svg" xmlns:xlink="http://www.w3.org/1999/xlink"><defs><path d="M.085 13.952C-.17 14.428.18 15 .729 15h14.543c.547 0 .898-.572.643-1.048L8.644.381A.723.723 0 008 0a.718.718 0 00-.644.38L.085 13.953zM8 2.404l5.899 11.01H2.1L8 2.404zm-.728 6.882c0 .394.327.713.728.713a.72.72 0 00.727-.713V6.428A.72.72 0 008 5.713a.722.722 0 00-.728.715v2.858zM8 12.143c.4 0 .727-.32.727-.715A.721.721 0 008 10.714a.722.722 0 00-.728.714c0 .395.327.715.728.715z" id="warning-1-16px_svg__a"/></defs><use fill="#737373" xlink:href="#warning-1-16px_svg__a" fill-rule="evenodd"/></svg>
